X: 31417
T: Paddy Ryan's Dream
R: reel
M: 4/4
K: Bdorian
bf~f2 dBcA|Fc~c2 ABcA|~B3c dcBd|cBAc Bcdc|
BF~F2 dBcA|Fc~c2 AB c/B/A|~B3c dcBd|cBAc ~B3B:|
fb~b2 bfdB|Aagb afee|fb~b2 bfde|{e}~f2ef dBcA|
Bb~b2 bfdB|Aagb afee|B/c/d ce dfe=g|fedc ~B3B:|

